X:1
T:Title
%%score 1 2
L:1/8
Q:1/4=88
M:3/4
K:Bb
V:1 treble nm="Grand Piano, Soprano"
V:2 bass nm="Choir Pad, Bodø, J. Lincoln Hall, 1911"
V:1
 [DF][B,D] [DF] [DB]3 | [Dc][EB] [EA] [EA]3 | [EF][EG] [EF] [Ec]3 | [EA][EG] [EF] [DB]3 | %4
w: By~Joseph~Lincoln~Hall,~1902 * * *||||
 [DF][B,D] [DF] [DB]3 | [Fd][Fc] [FB] [EG]3 | [EG][E^F] [EG] [=Ec]3 | [=EB][EA] [EG] [_Ec]3 | %8
w: ||||
 [Ge][Fd] [Ec] [DB]3 | [DF][FB] [FA] [EG]3 | [Ec][EB] [EG] [DF]3 | [FB][EA] [Ec] [DB]3 | %12
w: ||||
 [DB][DB] [DA] [EA]3 | [EG][EG] [EF] [DF]3 | [DB][Ec] [Fd] [Fc]3 | [=EB][EA] [EG] F3 | %16
w: ||||
 [DF][B,D] [DF] [DB]3 | [Fd][^Fd] [Gc] [GB]3 | [Gc][GB] [_DG][=DF] [FB][EB]- | [EB] [EA]2 [DB]3- | %20
w: ||||
 [DB]4 z2 |] %21
w: |
V:2
 [B,,B,][B,,F,] [B,,B,] [B,,F,]3 | [B,,B,][F,C] [F,C] [F,C]3 | [F,A,][F,B,] [F,A,] [F,A,]3 | %3
 [F,C][F,B,] [F,A,] [B,,B,]3 | [B,,B,][B,,F,] [B,,B,] [B,,F,]3 | [B,,B,][D,B,] [D,B,] [E,B,]3 | %6
 [E,B,][E,A,] [E,B,] [C,B,]3 | [C,G,][C,C] [C,B,] [F,A,]3 | [F,A,][F,G,] [F,A,] [B,,B,]3 | %9
 [B,,B,][D,B,] [D,B,] [E,B,]3 | [E,G,][E,G,] [E,B,] [F,B,]3 | [F,D][F,C] [F,A,] [B,,B,]3 | %12
 [B,,F,][B,,F,] [B,,B,] [F,C]3 | [F,B,][F,B,] [F,A,] [B,,B,]3 | [B,,B,][B,,B,] [B,,B,] [C,A,]3 | %15
 [C,G,][C,C] [C,B,] [F,A,]3 | [B,,B,][B,,F,] [B,,B,] [B,,F,]3 | [B,,B,][D,A,] [D,D] [G,D]3 | %18
 [E,E][E,E] [=E,B,][F,B,] [F,D][F,C]- | [F,C] [F,C]2 [B,,B,]3- | [B,,B,]4 z2 |] %21

